X: 6952
T: Cheticamp, The
R: jig
M: 6/8
K: Amajor
|:a2 b|c'2 a e2 c|A3 AEc|Ace Aca|g3 g2 a|
f2 d B2 A|G3 G2 F|1 EGB EGB|c2 e:|2 EFE EFG|A3||
|:c2 B|A2 c e2 a|c3 c2 e|cAe cAc|B3 BGF|
E2 G B2 c|d3 f a2|gfe dcB|1 c3:|2 A3||

